X:0636
M:2/4
L:1/16
Q:1/4=108
K:D
d2d2 edec|d2d2 edec|d2d2`e2e2|f2f2 gecA |
d2d2 edec|d2d2 edec|d2d2`e2e2|fgec d2z2:|
d2d'4  af|e2g4   fe|d2f2`d2f2|edcB A4   |
d2d'4  af|e2g4   fe|d2f2`d2f2|agfe d2z2:|

